public/icons/icon/align-center-vertical.svg

<svg width="30" height="30" viewBox="0 0 30 30" fill="none" xmlns="http://www.w3.org/2000/svg">
<path d="M12.9998 2C12.4475 2 11.9998 2.44772 11.9998 3V14H2.99976C2.44747 14 1.99976 14.4477 1.99976 15C1.99976 15.5523 2.44747 16 2.99976 16H11.9998V27C11.9998 27.5523 12.4475 28 12.9998 28H16.9998C17.552 28 17.9998 27.5523 17.9998 27V16H26.9998C27.552 16 27.9998 15.5523 27.9998 15C27.9998 14.4477 27.552 14 26.9998 14H17.9998V3C17.9998 2.44772 17.552 2 16.9998 2H12.9998Z" fill="black"/>
</svg>

<svg xmlns="http://www.w3.org/2000/svg" width="30" height="30" fill="none"><path fill="#000" d="M13 2a1 1 0 0 0-1 1v11H3a1 1 0 1 0 0 2h9v11a1 1 0 0 0 1 1h4a1 1 0 0 0 1-1V16h9a1 1 0 0 0 0-2h-9V3a1 1 0 0 0-1-1h-4Z"/></svg>
